vendor/shopware/storefront/Resources/app/storefront/dist/assets/icon/default/pushpin.svg

<svg xmlns="http://www.w3.org/2000/svg" width="24" height="24" viewBox="0 0 24 24">
  <path fill="#758CA3" fill-rule="evenodd" d="M8,9.91864321 L8,5.82929429 C6.83480763,5.41745788 6,4.30621883 6,3 C6,1.34314575 7.34314575,3.33066907e-16 9,0 L15,0 C16.6568542,-3.33066907e-16 18,1.34314575 18,3 C18,4.30621883 17.1651924,5.41745788 16,5.82929429 L16,9.91864321 C16.169861,10.0949626 16.3194859,10.2935359 16.4440844,10.5115832 L18.1583701,13.5115832 C18.9804,14.9501355 18.4806098,16.7826995 17.0420575,17.6047294 C16.5887644,17.863754 16.0757215,18 15.5536406,18 L13,18 L13,23 C13,23.5522847 12.5522847,24 12,24 C11.4477153,24 11,23.5522847 11,23 L11,18 L8.44635936,18 C6.78950511,18 5.44635936,16.6568542 5.44635936,15 C5.44635936,14.4779192 5.58260531,13.9648763 5.84162993,13.5115832 L7.55591564,10.5115832 C7.68051409,10.2935359 7.83013896,10.0949626 8,9.91864321 Z M13.8393549,9 L14,9 L14,6 L10,6 L10,9 L10.1606451,9 L13.8393549,9 Z M15,4 C15.5522847,4 16,3.55228475 16,3 C16,2.44771525 15.5522847,2 15,2 L9,2 C8.44771525,2 8,2.44771525 8,3 C8,3.55228475 8.44771525,4 9,4 L15,4 Z M10.1606451,11 C9.80178822,11 9.47044478,11.1922861 9.29240193,11.5038611 L7.57811621,14.5038611 C7.49177467,14.6549588 7.44635936,14.8259731 7.44635936,15 C7.44635936,15.5522847 7.89407461,16 8.44635936,16 L15.5536406,16 C15.7276676,16 15.8986819,15.9545847 16.0497796,15.8682431 C16.529297,15.5942332 16.6958938,14.9833785 16.4218838,14.5038611 L14.7075981,11.5038611 C14.5295552,11.1922861 14.1982118,11 13.8393549,11 L10.1606451,11 Z"/>
</svg>

<svg xmlns="http://www.w3.org/2000/svg" width="24" height="24" viewBox="0 0 24 24"><path fill="#758CA3" fill-rule="evenodd" d="M8 9.9186V5.8293C6.8348 5.4175 6 4.3063 6 3c0-1.6569 1.3431-3 3-3h6c1.6569 0 3 1.3431 3 3 0 1.3062-.8348 2.4175-2 2.8293v4.0893c.1699.1764.3195.375.444.593l1.7144 3c.822 1.4385.3222 3.2711-1.1163 4.0931A3 3 0 0 1 15.5536 18H13v5c0 .5523-.4477 1-1 1s-1-.4477-1-1v-5H8.4464c-1.6569 0-3-1.3431-3-3a3 3 0 0 1 .3952-1.4884l1.7143-3A2.9983 2.9983 0 0 1 8 9.9186zM13.8394 9H14V6h-4v3h3.8394zM15 4c.5523 0 1-.4477 1-1s-.4477-1-1-1H9c-.5523 0-1 .4477-1 1s.4477 1 1 1h6zm-4.8394 7a1 1 0 0 0-.8682.5039l-1.7143 3A1 1 0 0 0 7.4464 15c0 .5523.4477 1 1 1h7.1072a1 1 0 0 0 .4962-.1318c.4795-.274.646-.8848.372-1.3643l-1.7142-3A1 1 0 0 0 13.8394 11h-3.6788z"/></svg>
